svg/design/rotate_y_fill.svg

<?xml version="1.0" encoding="UTF-8"?>
<svg width="24px" height="24px" viewBox="0 0 24 24" version="1.1" xmlns="http://www.w3.org/2000/svg" xmlns:xlink="http://www.w3.org/1999/xlink">
    <title>rotate_y_fill</title>
    <g id="Icon" stroke="none" stroke-width="1" fill="none" fill-rule="evenodd">
        <g id="Design" transform="translate(-672.000000, -336.000000)" fill-rule="nonzero">
            <g id="rotate_y_fill" transform="translate(672.000000, 336.000000)">
                <path d="M24,0 L24,24 L0,24 L0,0 L24,0 Z M12.5935,23.2578 L12.5819,23.2595 L12.5109,23.295 L12.4919,23.2987 L12.4767,23.295 L12.4057,23.2595 C12.3958,23.2564 12.387,23.259 12.3821,23.2649 L12.378,23.2758 L12.3609,23.7031 L12.3659,23.7235 L12.3769,23.7357 L12.4805,23.8097 L12.4953,23.8136 L12.5071,23.8097 L12.6107,23.7357 L12.6233,23.7197 L12.6267,23.7031 L12.6096,23.2758 C12.6076,23.2657 12.601,23.2593 12.5935,23.2578 Z M12.8584,23.1453 L12.8445,23.1473 L12.6598,23.2397 L12.6499,23.2499 L12.6472,23.2611 L12.6651,23.6906 L12.6699,23.7034 L12.6784,23.7105 L12.8793,23.8032 C12.8914,23.8069 12.9022,23.803 12.9078,23.7952 L12.9118,23.7812 L12.8777,23.1665 C12.8753,23.1546 12.8674,23.147 12.8584,23.1453 Z M12.143,23.1473 C12.1332,23.1424 12.1222,23.1453 12.1156,23.1526 L12.1099,23.1665 L12.0758,23.7812 C12.0751,23.7927 12.0828,23.8019 12.0926,23.8046 L12.1083,23.8032 L12.3092,23.7105 L12.3186,23.7024 L12.3225,23.6906 L12.3404,23.2611 L12.3372,23.2485 L12.3278,23.2397 L12.143,23.1473 Z" id="MingCute"></path>
                <path d="M12,1.5 C13.0709,1.5 13.8523,2.15242 14.3459,2.7788 C14.8529,3.4221 15.2438,4.26001 15.5444,5.1617 C16.1507,6.98076 16.5,9.39836 16.5,12 C16.5,14.6016 16.1507,17.0192 15.5444,18.8383 C15.2438,19.74 14.8529,20.5779 14.3459,21.2212 C13.8523,21.8476 13.0709,22.5 12,22.5 C10.4987,22.5 9.57009,21.2572 9.07128,20.3105 C8.50567,19.237 8.09212,17.8151 7.83206,16.2451 C7.69667,15.4278 8.24946,14.6556 9.06675,14.5202 C9.88404,14.3848 10.6563,14.9376 10.7917,15.7549 C11.0226,17.1484 11.3641,18.2264 11.7254,18.9121 C11.79098,19.03654 11.850476,19.136644 11.9030888,19.216948 L11.9989,19.3525 L11.9989,19.3525 C12.2079,19.0828 12.4595,18.6061 12.6983,17.8896 C13.1778,16.4513 13.5,14.3689 13.5,12 C13.5,9.63108 13.1778,7.54868 12.6983,6.11038 C12.46,5.39527 12.2089,4.91904 12,4.64901 C11.9068,4.76959 11.7925,4.94815 11.6675,5.20151 C11.5628,5.41395 11.4606,5.65828 11.363,5.93233 C11.6529,6.03167 11.9151,6.22044 12.1043,6.49065 C12.5794,7.16926 12.4145,8.10458 11.7359,8.57974 L10.1245,9.70807 C9.81976,9.93238 9.43045,10.0423 9.02616,9.98534 C8.61696889,9.92771333 8.26973136,9.71006296 8.03878683,9.40456052 L6.86136,7.72023 C6.38619,7.04162 6.55112,6.1063 7.22972,5.63113 C7.57857,5.38687 7.99525,5.31176 8.38238,5.38862 C8.55581,4.83518 8.7542,4.32621 8.97696,3.87453 C9.2632,3.29415 9.62388,2.73796 10.0841,2.30835 C10.5524,1.8713 11.2004,1.5 12,1.5 Z M12,10.5 L12,13.5 L5,13.5 C4.17157,13.5 3.5,12.8284 3.5,12 C3.5,11.1716 4.17157,10.5 5,10.5 L12,10.5 Z M18,10.5 L19,10.5 C19.8284,10.5 20.5,11.1716 20.5,12 C20.5,12.8284 19.8284,13.5 19,13.5 L18,13.5 L18,10.5 Z" id="形状" fill="#09244B"></path>
            </g>
        </g>
    </g>
</svg>

<svg xmlns="http://www.w3.org/2000/svg" width="24" height="24"><g fill="none" fill-rule="nonzero"><path d="M24 0v24H0V0h24ZM12.594 23.258l-.012.002-.071.035-.02.004-.014-.004-.071-.036c-.01-.003-.019 0-.024.006l-.004.01-.017.428.005.02.01.013.104.074.015.004.012-.004.104-.074.012-.016.004-.017-.017-.427c-.002-.01-.009-.017-.016-.018Zm.264-.113-.014.002-.184.093-.01.01-.003.011.018.43.005.012.008.008.201.092c.012.004.023 0 .029-.008l.004-.014-.034-.614c-.003-.012-.01-.02-.02-.022Zm-.715.002a.023.023 0 0 0-.027.006l-.006.014-.034.614c0 .012.007.02.017.024l.015-.002.201-.093.01-.008.003-.011.018-.43-.003-.012-.01-.01-.184-.092Z"/><path fill="#09244B" d="M12 1.5c1.07 0 1.852.652 2.346 1.279.507.643.898 1.481 1.198 2.383.607 1.819.956 4.236.956 6.838 0 2.602-.35 5.02-.956 6.838-.3.902-.691 1.74-1.198 2.383-.494.627-1.275 1.279-2.346 1.279-1.501 0-2.43-1.243-2.929-2.19-.565-1.073-.979-2.495-1.239-4.065a1.5 1.5 0 1 1 2.96-.49c.23 1.393.572 2.471.933 3.157.066.125.125.225.178.305l.096.136c.209-.27.46-.747.7-1.463.479-1.439.801-3.521.801-5.89 0-2.369-.322-4.451-.802-5.89-.238-.715-.49-1.191-.698-1.461-.093.12-.207.3-.332.553a6.895 6.895 0 0 0-.305.73 1.5 1.5 0 0 1 .373 2.647l-1.611 1.13a1.495 1.495 0 0 1-1.099.276 1.495 1.495 0 0 1-.987-.58L6.86 7.72A1.5 1.5 0 0 1 8.382 5.39c.174-.554.372-1.063.595-1.514.286-.58.647-1.137 1.107-1.567C10.552 1.871 11.2 1.5 12 1.5Zm0 9v3H5a1.5 1.5 0 0 1 0-3h7Zm6 0h1a1.5 1.5 0 0 1 0 3h-1v-3Z"/></g></svg>
